X:1
T:Amazing Grace  "arr: Dave Palladino"
M:3/4
L:1/8
Q:80
C:fourths
S:Hymn
K:HP
{g}Ad{gdG}d4 | \
{g}fe/2d/2{gfg}f4 | \
{g}fe{Gdc}d4 |
{gdG}d2{g}A4 | \
{g}Ad{gdG}d4 | \
{g}fe/2d/2{g}f4 |
{g}ef{ag}a4 | \
G2{g}A4|]
{g}fa{g}a4 |
fe/2d/2{gfg}f4 | \
A2{Gdc}d4 | \
{g}e2{g}A4 |
{g}Ad{Gdc}d4 | \
{g}Ad{g}A4 | \
{GAG}A2{Gdc}d4 |
-d2{gdG}d4|]
